public/img/svg/fob_pin_green.svg

<?xml version="1.0" standalone="no"?><!-- Generator: Gravit.io --><svg xmlns="http://www.w3.org/2000/svg" xmlns:xlink="http://www.w3.org/1999/xlink" style="isolation:isolate" viewBox="0 0 24 24" width="24" height="24"><defs><clipPath id="_clipPath_8SSyaSTGuiLSnxTlw7NvyPDgghx8irhD"><rect width="24" height="24"/></clipPath></defs><g clip-path="url(#_clipPath_8SSyaSTGuiLSnxTlw7NvyPDgghx8irhD)"><path d=" M 14 2 C 14 3.104 13.104 4 12 4 C 10.896 4 10 3.104 10 2 C 10 0.896 10.896 0 12 0 C 13.104 0 14 0.896 14 2 Z " fill="rgb(0,0,0)" fill-opacity="0.33"/><path d=" M 9.704 4.296 L 12 2 L 14.296 4.296 C 18.153 5.312 21 8.826 21 13 C 21 17.967 16.967 22 12 22 C 7.033 22 3 17.967 3 13 C 3 8.826 5.847 5.312 9.704 4.296 Z " fill-rule="evenodd" fill="rgb(76,175,80)"/><path d=" M 15 18 L 15 15 L 17 13 L 17 9 L 15 9 L 15 10 L 13 10 L 13 9 L 11 9 L 11 10 L 9 10 L 9 9 L 7 9 L 7 13 L 9 15 L 9 18 L 11 18 L 11 15 L 13 15 L 13 18 L 15 18 M 8 12 L 16 12 L 15 13 L 9 13 L 8 12 M 15 18 Z " fill-rule="evenodd" fill="rgb(255,255,255)"/></g></svg>

<svg xmlns="http://www.w3.org/2000/svg" style="isolation:isolate" width="24" height="24"><defs><clipPath id="a"><path d="M0 0h24v24H0z"/></clipPath></defs><g clip-path="url(#a)"><path d="M14 2a2 2 0 1 1-4 0 2 2 0 0 1 4 0z" fill-opacity=".33"/><path d="M9.7 4.3L12 2l2.3 2.3a9 9 0 1 1-4.6 0z" fill-rule="evenodd" fill="#4CAF50"/><path d="M15 18v-3l2-2V9h-2v1h-2V9h-2v1H9V9H7v4l2 2v3h2v-3h2v3h2m-7-6h8l-1 1H9l-1-1m7 6z" fill-rule="evenodd" fill="#FFF"/></g></svg>
